X: 103
T: Missa Pascale / Kyrie
N: Derived from Rue1023a-Missa_Pascale-Kyrie.krn
C: Pierre de la Rue
%%abc-version 2.0
%%abcx-abcm2ps-target-version 5.9.1 (29 Sep 2008)
%%abc-creator hum2abc beta
%%abcx-conversion-date 2019/02/17 08:01:14
%%abc-edited-by Jesse Rodin
%%abc-edited-by Chris Gage 04-16-2013
%%abcx-initial-encoding-date 2013/08/01/
%%humdrum-veritas 3325777057
%%humdrum-veritas-data 2675709862
%%linebreak <none>
%%barnumbers 0
L: 1/4
M: 3/1
Q: 1/2=120
V: 1 clef=treble
V: 2 clef=treble-8
V: 3 clef=treble-8
V: 4 clef=treble-8
V: 5 clef=bass
K: C
[V:1] G12- | 
[V:2] g4g2e4dc | 
[V:3] z12 | 
[V:4] z12 | 
[V:5] z4z4G,4 | 
[V:1] G12 | 
[V:2] B4e4d2B2 | 
[V:3] z12 | 
[V:4] z12 | 
[V:5] G,2E,4D,C,B,,2E,2 | 
[V:1] A12- | 
[V:2] c3de2f2c3d | 
[V:3] A8A4 | 
[V:4] c4c2A4GF | 
[V:5] A,,3B,,C,2D,2A,,4 | 
[V:1] A12 | 
[V:2] e2e3dcBA4 | 
[V:3] c12 | 
[V:4] E4E4F4- | 
[V:5] A,,2C,3B,,A,,G,,F,,4- | 
[V:1] c12- | 
[V:2] z2f2f4e2f2 | 
[V:3] A8c4- | 
[V:4] F4F4C4 | 
[V:5] F,,4F,,3G,,A,,2F,,2 | 
[V:1] c8B4 | 
[V:2] e6c2d2e2 | 
[V:3] c2BAG2A4G2 | 
[V:4] z12 | 
[V:5] C,3D,E,C,F,4E,2 | 
[V:1] A12- | 
[V:2] c8f3e | 
[V:3] A12 | 
[V:4] z2F2F4D4 | 
[V:5] F,4F,,4z2F,2 | 
[V:1] A8d4 | 
[V:2] dcdcBAA4^G2 | 
[V:3] z12 | 
[V:4] A3GF2E2D4 | 
[V:5] F,3E,D,2C,2B,,4 | 
[V:1] c3BB2A4^G2 | 
[V:2] A2e3dc2B4 | 
[V:3] z12 | 
[V:4] E8E4 | 
[V:5] A,,4z4z4 | 
[V:1] A8z4 | 
[V:2] A8z4 | 
[V:3] c8c4 | 
[V:4] z4z2E2E3F | 
[V:5] A,,8C,3D, | 
[V:1] z12 | 
[V:2] z12 | 
[V:3] B8c4 | 
[V:4] GAB4G4A2- | 
[V:5] E,F,G,4E,4F,2- | 
[V:1] z12 | 
[V:2] z12 | 
[V:3] d3Bc2A2B2c2 | 
[V:4] A2F2G2A2E2G2 | 
[V:5] F,2D,2E,2F,2G,3E, | 
[V:1] z12 | 
[V:2] z4z4e4 | 
[V:3] d2e4d4^c2 | 
[V:4] A2B2c2A4G2 | 
[V:5] F,2G,2A,2F,2E,4 | 
[V:1] A8A4 | 
[V:2] f8f4 | 
[V:3] d12 | 
[V:4] A8F3G | 
[V:5] D,8D,4 | 
[V:1] c8c4 | 
[V:2] e12- | 
[V:3] z12 | 
[V:4] A2A4GFE2A2 | 
[V:5] A,,12 | 
[V:1] B8G4 | 
[V:2] e8e4 | 
[V:3] z12 | 
[V:4] G2E3FGAB4 | 
[V:5] z4z4E,4 | 
[V:1] A8A4 | 
[V:2] c2f4e2c3d | 
[V:3] z2d4c2A2c2- | 
[V:4] A12 | 
[V:5] F,8F,4 | 
[V:1] G4z2B2A2c2- | 
[V:2] e4e2d2f2e2 | 
[V:3] c2B4d4c2 | 
[V:4] z12 | 
[V:5] E,4G,4D,2A,2- | 
[V:1] cBA2G3AB2c2- | 
[V:2] c3de4e2cd | 
[V:3] A2c4B4e2 | 
[V:4] z12 | 
[V:5] A,G,F,2E,3F,G,2A,2- | 
[V:1] c2B2cBAGA4 | 
[V:2] efg3fe4d2 | 
[V:3] e3dc2B2A3B | 
[V:4] z4z4D4 | 
[V:5] A,2G,2A,2E,2F,4 | 
[V:1] G12- | 
[V:2] e12- | 
[V:3] B12- | 
[V:4] G3AB2E2G4 | 
[V:5] E,12- | 
[V:1] G12 ||  
[V:2] e12 ||  
[V:3] B12 ||  
[V:4] G12 ||  
[V:5] E,12 ||  
[V:1]  [K:C] [K:clef=treble][M:2/1]z8 | 
[V:2]  [K:C] [K:clef=treble-8][M:2/1]e8 | 
[V:3]  [K:C] [K:clef=treble-8][M:2/1]z8 | 
[V:4]  [K:C] [K:clef=treble-8][M:2/1]z4G4 | 
[V:5]  [K:C] [K:clef=bass][M:2/1]C,8- | 
[V:1] z8 | 
[V:2] e4e4 | 
[V:3] z8 | 
[V:4] G2A3Bc2- | 
[V:5] C,8 | 
[V:1] z8 | 
[V:2] f6ed | 
[V:3] z8 | 
[V:4] c2BAB4 | 
[V:5] D,8 | 
[V:1] z4G4 | 
[V:2] e8- | 
[V:3] c8 | 
[V:4] E8 | 
[V:5] C,8- | 
[V:1] G2A3Bc2- | 
[V:2] e8 | 
[V:3] c8 | 
[V:4] E6DC | 
[V:5] C,8 | 
[V:1] c2BAB4 | 
[V:2] z8 | 
[V:3] d8 | 
[V:4] G8 | 
[V:5] G,,8 | 
[V:1] E3FG2A2- | 
[V:2] g6e2 | 
[V:3] c8 | 
[V:4] z8 | 
[V:5] C,3D,E,2A,,2 | 
[V:1] AGFED4 | 
[V:2] f4f4 | 
[V:3] d8 | 
[V:4] z8 | 
[V:5] D,4B,,4 | 
[V:1] z4G4- | 
[V:2] e6dc | 
[V:3] c8- | 
[V:4] G4G2c2- | 
[V:5] C,8- | 
[V:1] G4G4 | 
[V:2] e2f4e2 | 
[V:3] c8 | 
[V:4] c2BAG4 | 
[V:5] C,8 | 
[V:1] A6F2 | 
[V:2] f8 | 
[V:3] c8- | 
[V:4] F4A4- | 
[V:5] z4F,4- | 
[V:1] A2B2c4 | 
[V:2] f4f4 | 
[V:3] c8 | 
[V:4] A4A4 | 
[V:5] F,2G,2A,4 | 
[V:1] B6AG | 
[V:2] g2d4cB | 
[V:3] d8- | 
[V:4] B4G4 | 
[V:5] G,4G,,4 | 
[V:1] A2G2d4 | 
[V:2] A2B3cde | 
[V:3] d8- | 
[V:4] z2G4G2 | 
[V:5] F,,2G,,3A,,B,,C, | 
[V:1] A2d3cA2 | 
[V:2] f2g4^f2 | 
[V:3] d8- | 
[V:4] F2_B2A4 | 
[V:5] D,2G,,2D,4 | 
[V:1] B3GA2B2 | 
[V:2] g4z2g2 | 
[V:3] d8 | 
[V:4] G4d4 | 
[V:5] G,,4z2G,2 | 
[V:1] c3BAGA2- | 
[V:2] e2c2f3e | 
[V:3] z8 | 
[V:4] c8 | 
[V:5] C,2F,3E,F,2 | 
[V:1] A2G3^FF2 | 
[V:2] d2c2d4 | 
[V:3] z8 | 
[V:4] B3GA4 | 
[V:5] G,2E,2D,4 | 
[V:1] G8 | 
[V:2] z4d4 | 
[V:3] z8 | 
[V:4] G8 | 
[V:5] G,,8- | 
[V:1] z8 | 
[V:2] e2d4B2 | 
[V:3] z8 | 
[V:4] z4G4 | 
[V:5] G,,8 | 
[V:1] z8 | 
[V:2] c2d2B2e2 | 
[V:3] z4G4 | 
[V:4] A2G4E2 | 
[V:5] z8 | 
[V:1] z8 | 
[V:2] dcBAB4 | 
[V:3] A2G4E2 | 
[V:4] F2G3ABc | 
[V:5] z4G,4 | 
[V:1] z8 | 
[V:2] A2d4e2 | 
[V:3] F2G3ABc | 
[V:4] d4B4 | 
[V:5] A,2G,4E,2 | 
[V:1] z8 | 
[V:2] d2e2f4 | 
[V:3] d2c4B2 | 
[V:4] A2G4F2 | 
[V:5] F,E,D,C,D,4 | 
[V:1] z4G4 | 
[V:2] e8- | 
[V:3] c8 | 
[V:4] G8 | 
[V:5] C,8- | 
[V:1] A2G4E2 | 
[V:2] e8 | 
[V:3] c4c4 | 
[V:4] z8 | 
[V:5] C,4E,4 | 
[V:1] F2G3ABc | 
[V:2] z8 | 
[V:3] d2e4dc | 
[V:4] z8 | 
[V:5] D,2C,3D,E,F, | 
[V:1] d2c4B2 | 
[V:2] z8 | 
[V:3] B2c2d4 | 
[V:4] z8 | 
[V:5] G,2A,2G,4 | 
[V:1] c2G2A2G2 | 
[V:2] e8 | 
[V:3] c8 | 
[V:4] z2G2c3B | 
[V:5] C,8 | 
[V:1] A2B2c4 | 
[V:2] e6c2 | 
[V:3] z4z2G2 | 
[V:4] A2G2A2E2 | 
[V:5] z4z2C,2 | 
[V:1] B4z4 | 
[V:2] d2e2f2d2 | 
[V:3] B2c2d2B2 | 
[V:4] z8 | 
[V:5] G,2F,E,D,2G,2 | 
[V:1] z2G2A2G2 | 
[V:2] e8 | 
[V:3] c8 | 
[V:4] z2G2c3B | 
[V:5] C,8 | 
[V:1] A2B2c4 | 
[V:2] z4z2e2 | 
[V:3] z4z2G2 | 
[V:4] A2G2A2E2 | 
[V:5] z4z2C,2 | 
[V:1] B2A2BAGF | 
[V:2] d2e2f2d2 | 
[V:3] B2c2d2B2 | 
[V:4] z2A2F2G2 | 
[V:5] G,2F,E,D,2G,2 | 
[V:1] E4G4 | 
[V:2] e4e4 | 
[V:3] c8- | 
[V:4] GFEDE4 | 
[V:5] C,8 | 
[V:1] A4c4- | 
[V:2] f8 | 
[V:3] c8- | 
[V:4] C4A4- | 
[V:5] F,,4F,,4 | 
[V:1] c2B2A4 | 
[V:2] f8 | 
[V:3] c8- | 
[V:4] A4F4 | 
[V:5] F,8 | 
[V:1] G8- | 
[V:2] e8- | 
[V:3] c8- | 
[V:4] G4E2F2 | 
[V:5] C,8- | 
[V:1] G8 ||  
[V:2] e8 ||  
[V:3] c8 ||  
[V:4] G8 ||  
[V:5] C,8 ||  
[V:1]  [K:C] [K:clef=treble][M:3/1]z12 | 
[V:2]  [K:C] [K:clef=treble-8][M:3/1]z12 | 
[V:3]  [K:C] [K:clef=treble-8][M:3/1]z12 | 
[V:4]  [K:C] [K:clef=treble-8][M:3/1]G8G4 | 
[V:5]  [K:C] [K:clef=bass][M:3/1]z12 | 
[V:1] G8G4 | 
[V:2] z12 | 
[V:3] z12 | 
[V:4] B6c6 | 
[V:5] z12 | 
[V:1] B6c6 | 
[V:2] z12 | 
[V:3] z12 | 
[V:4] d4e8 | 
[V:5] z12 | 
[V:1] d3cB2A3GFE | 
[V:2] f4f2f3edc | 
[V:3] z12 | 
[V:4] d12- | 
[V:5] D,12- | 
[V:1] D2d3cB2A4 | 
[V:2] BAdef2g4^f2 | 
[V:3] z12 | 
[V:4] d12 | 
[V:5] D,8D,4 | 
[V:1] G3AB2c4B2 | 
[V:2] g2e4dcd4 | 
[V:3] G8G4 | 
[V:4] z12 | 
[V:5] E,2C,4B,,A,,G,,4 | 
[V:1] c8z4 | 
[V:2] c3de4z4 | 
[V:3] A4c6BA | 
[V:4] z4z2A4F2 | 
[V:5] z4A,,3B,,C,2D,2 | 
[V:1] z12 | 
[V:2] z12 | 
[V:3] Bcded2c4B2 | 
[V:4] GABGA2G4F2 | 
[V:5] G,,2G,3F,E,2D,4 | 
[V:1] G8G4 | 
[V:2] e8e4 | 
[V:3] c12- | 
[V:4] G8G4 | 
[V:5] C,8C,4 | 
[V:1] A4c6BA | 
[V:2] f3ec2d2e2f2 | 
[V:3] c8z4 | 
[V:4] F2A4GFE2D2 | 
[V:5] F,6E,D,C,2D,2 | 
[V:1] G3AB2d2c2cA | 
[V:2] g2fed4z4 | 
[V:3] B8c4 | 
[V:4] G6G3EF2 | 
[V:5] E,2F,2G,2G,,2A,,4 | 
[V:1] B2d4d2c3B | 
[V:2] B8c3d | 
[V:3] d8A2c2- | 
[V:4] z2G4D2F2ED | 
[V:5] G,,8z2A,,2- | 
[V:1] AGB2AGG4^F2 | 
[V:2] efg2e2d2c2A2 | 
[V:3] c2B2cBAGA4 | 
[V:4] C2D2C2D2E2F2 | 
[V:5] A,,2G,,2A,,2B,,2C,2D,2 | 
[V:1] G12 | 
[V:2] B6G2G4 | 
[V:3] G8z4 | 
[V:4] D2E2D2E3FGA | 
[V:5] G,,4z2C,3D,E,F, | 
[V:1] z12 | 
[V:2] z2G3/A/Bcd4B2 | 
[V:3] z12 | 
[V:4] B3AG2F2_B3A | 
[V:5] G,3F,E,2D,2G,3F, | 
[V:1] z12 | 
[V:2] cBAGA2G4^F2 | 
[V:3] z12 | 
[V:4] GFEDE2D4C2 | 
[V:5] E,D,C,B,,C,2G,,2A,,4 | 
[V:1] d8B4 | 
[V:2] G4z2G3ABc | 
[V:3] B12- | 
[V:4] D8z4 | 
[V:5] G,,12- | 
[V:1] G8c4 | 
[V:2] d4e2g4^f2 | 
[V:3] B8c4 | 
[V:4] z2G4B2A4 | 
[V:5] G,,8z4 | 
[V:1] B4B2G3ABG | 
[V:2] g6fed2e2 | 
[V:3] d8B4 | 
[V:4] G8G4 | 
[V:5] z12 | 
[V:1] A4F2D2EDEF | 
[V:2] fedcd4c4 | 
[V:3] c4A2B2cBcd | 
[V:4] F3EF2G2C2F2 | 
[V:5] z12 | 
[V:1] GAG4F2E4 | 
[V:2] z4z4z2e2 | 
[V:3] efe4d4^c2 | 
[V:4] E2C4D2A4 | 
[V:5] z12 | 
[V:1] z2D3EFGABc2- | 
[V:2] f6edc4 | 
[V:3] d8z4 | 
[V:4] A12 | 
[V:5] D,8F,4 | 
[V:1] c2BAB2A4^G2 | 
[V:2] e4dcBAB4 | 
[V:3] z12 | 
[V:4] z12 | 
[V:5] C,D,E,F,G,2A,2E,4 | 
[V:1] A4z4z4 | 
[V:2] A4z4z2e2 | 
[V:3] z2d2B4c4 | 
[V:4] z2A2BAGFG4 | 
[V:5] A,,2D,2G,F,E,D,E,4 | 
[V:1] z2A4GFG2E2 | 
[V:2] f6ede2c2 | 
[V:3] d8z4 | 
[V:4] A8z2A2 | 
[V:5] D,8z4 | 
[V:1] GABcB2A4G2 | 
[V:2] e2dcdcBAB4 | 
[V:3] z12 | 
[V:4] EFGAG2A2E4 | 
[V:5] z12 | 
[V:1] F2A2BAGFE2A2 | 
[V:2] A4z4z4 | 
[V:3] z2d2B4c4 | 
[V:4] z4z4z2A2- | 
[V:5] z2D,2G,F,E,D,A,4 | 
[V:1] F2A2B2d3cBA | 
[V:2] A4GABcd3e | 
[V:3] d12- | 
[V:4] A2F2G2FED2D2- | 
[V:5] D,4z2G,,3A,,B,,C, | 
[V:1] B2A4G3^FF2 | 
[V:2] f4f2d3cA2 | 
[V:3] d12 | 
[V:4] DEFGA2B2A4 | 
[V:5] D,3E,F,D,G,2D,4 | 
[V:1] G12- | 
[V:2] B2d2e2d2e4 | 
[V:3] z2B2c2B2c4 | 
[V:4] G12- | 
[V:5] z2G,,2C,2G,,2C,4 | 
[V:1] G12 |]  
[V:2] d12 |]  
[V:3] B12 |]  
[V:4] G12 |]  
[V:5] G,,12 |]  



